X:79
T:
S:Uppt. efter postmästaren Brodén, Klintehamn.
M:3/4
L:1/8
K:F
A|c> A F A c d|B c A2 z c|
w:Ock mi-na pän-gar har jag su-pit opp ock
d> c A A c B|G2 F2 z A|c> A F A c d|
w:så den lil-la rö-da ko-na. Nu har jag ic-ke nå-got
B c A2 z c|d> c A2 c> B|G2 F2 z F|
w:mer i-gän än ba-ra rum-pan ock hor-na. De
G> G G G G G|F> A c2 z A|G> E C E G A|
w:rö-da ro-sor ock de vi-ta blad, de vack-ra flic-kor-na de
F> A c2 z c|d> c A A c B|G2 F2 z|]
w:vill jag ha, e-vad det kos-tar el-ler gäl-ler.
